assets/images/logo.svg

<svg width="48" height="48" viewBox="0 0 48 48" fill="none" xmlns="http://www.w3.org/2000/svg">
<g id="Frame 10887209">
<circle id="Ellipse 2352" cx="24.001" cy="24" r="24" fill="white"/>
<path id="Vector" d="M21.3086 0.1497C15.9004 0.771439 10.9445 3.14535 7.06269 7.00766C3.50121 10.5497 1.16458 14.9584 0.297766 19.8192C-0.0979533 22.0424 -0.0979533 26.0743 0.297766 28.2975C2.05024 38.0757 9.92694 45.9511 19.7069 47.7033C21.9304 48.0989 25.963 48.0989 28.1866 47.7033C33.0483 46.8366 37.4577 44.5004 41.0003 40.9395C47.803 34.0815 49.8569 24.0207 46.2389 15.0337C42.2629 5.12361 31.9365 -1.0561 21.3086 0.1497ZM25.2658 11.7178C26.9429 12.5845 27.2255 14.7134 25.8311 16.0511C25.3788 16.4845 25.0585 16.6163 24.1728 16.6729C23.1364 16.7482 23.0234 16.7105 22.3827 16.1642C20.894 14.8453 21.0448 12.8106 22.6842 11.812C23.4002 11.3598 24.512 11.3222 25.2658 11.7178ZM17.163 17.012C21.5159 17.3888 26.3587 17.3888 31.145 16.9932C34.7819 16.6917 35.1022 16.6917 35.5356 16.9743C36.1386 17.37 36.1952 18.4062 35.6487 18.9526C35.2153 19.3859 34.9515 19.4424 31.39 19.8004C29.1099 20.0453 28.7142 20.1395 28.4315 20.4975C28.1112 20.8555 28.0924 21.5337 28.0924 28.2598C28.0924 35.5511 28.0924 35.6265 27.6778 36.0598C27.169 36.6062 26.1703 36.6439 25.6615 36.1352C25.2469 35.7207 25.1716 35.2497 24.8889 31.8772C24.6439 28.9192 24.5874 28.6555 24.2294 28.5236C23.6264 28.2786 23.4379 28.8815 23.2118 31.8207C22.9292 35.1743 22.7596 36.041 22.2508 36.3047C21.6666 36.6062 20.894 36.512 20.4229 36.0786L19.9895 35.683V28.2786C19.9895 21.5337 19.9707 20.8555 19.6692 20.4975C19.3677 20.1395 18.9531 20.0453 16.0323 19.7439C13.1115 19.4236 12.7158 19.3482 12.4143 18.9714C11.9809 18.4439 11.9809 17.5019 12.3955 17.0497C12.7724 16.6352 13.0173 16.6352 17.163 17.012Z" fill="black"/>
</g>
</svg>

<svg xmlns="http://www.w3.org/2000/svg" width="48" height="48" fill="none">
    <circle cx="24.001" cy="24" r="24" fill="#fff"/>
    <path fill="#000" d="M21.309.15A23.934 23.934 0 0 0 7.063 7.008C3.5 10.55 1.165 14.958.298 19.819c-.396 2.223-.396 6.255 0 8.479C2.05 38.075 9.927 45.95 19.707 47.703c2.223.396 6.256.396 8.48 0 4.861-.866 9.27-3.203 12.813-6.764 6.803-6.858 8.857-16.918 5.239-25.905C42.263 5.124 31.937-1.056 21.309.15Zm3.957 11.568c1.677.867 1.96 2.995.565 4.333-.452.434-.773.565-1.658.622-1.037.075-1.15.038-1.79-.509-1.489-1.319-1.338-3.353.301-4.352.716-.452 1.828-.49 2.582-.094Zm-8.103 5.294c4.353.377 9.196.377 13.982-.019 3.637-.301 3.957-.301 4.39-.019.604.396.66 1.432.114 1.979-.434.433-.697.49-4.259.847-2.28.245-2.676.34-2.959.697-.32.358-.339 1.037-.339 7.763 0 7.291 0 7.366-.414 7.8-.509.546-1.508.584-2.017.075-.414-.414-.49-.885-.772-4.258-.245-2.958-.302-3.221-.66-3.353-.603-.245-.791.357-1.017 3.297-.283 3.353-.452 4.22-.961 4.484-.584.301-1.357.207-1.828-.226l-.433-.396v-7.404c0-6.745-.02-7.424-.32-7.782-.302-.357-.717-.452-3.638-.753-2.92-.32-3.316-.396-3.618-.773-.433-.527-.433-1.47-.018-1.921.376-.415.621-.415 4.767-.038Z"/>
</svg>
